Papirus/22x22/panel/teamviewer-indicator-away.svg

<?xml version="1.0" encoding="UTF-8" standalone="no"?>
<svg xmlns:dc="http://purl.org/dc/elements/1.1/" xmlns:cc="http://creativecommons.org/ns#" xmlns:rdf="http://www.w3.org/1999/02/22-rdf-syntax-ns#" xmlns:svg="http://www.w3.org/2000/svg" xmlns="http://www.w3.org/2000/svg" version="1.1" id="svg2" height="22" viewBox="0 0 6.208889 6.208889" width="22">
    <metadata id="metadata16">
        <rdf:RDF>
            <cc:Work rdf:about="">
                <dc:format>
                    image/svg+xml
                </dc:format>
                <dc:type rdf:resource="http://purl.org/dc/dcmitype/StillImage"/>
                <dc:title/>
            </cc:Work>
        </rdf:RDF>
    </metadata>
    <g transform="matrix(-1,0,0,1,5.9266668,0)" id="g4155">
        <path id="path4144" transform="matrix(0.28222222,0,0,0.28222222,-0.28222208,0)" d="m 12,3 a 7.9999994,7.9999994 0 0 0 -8,8 7.9999994,7.9999994 0 0 0 0.1367188,1.449219 L 4.5,12.085938 5.2070312,11.378906 8.0351562,14.207031 7.2421875,15 11,15 11,18.929688 A 7.9999994,7.9999994 0 0 0 12,19 7.9999994,7.9999994 0 0 0 20,11 7.9999994,7.9999994 0 0 0 12,3 Z m -2,5 0,1.9980469 4,0 L 14,8 l 3,3 -3,3 0,-1.998047 -4,0 L 10,14 7,11 10,8 Z M 5.2070312,12.792969 1,17 5.2070312,21.207031 6.6210938,19.792969 4.828125,18 10,18 10,16 4.828125,16 6.6210938,14.207031 5.2070312,12.792969 Z" style="opacity:1000002;fill:#ffffff;fill-opacity:1;stroke:none;stroke-width:2;stroke-linecap:round;stroke-linejoin:round;stroke-miterlimit:4;stroke-dasharray:none;stroke-opacity:1"/>
    </g>
    <g transform="matrix(0.28222222,0,0,0.28222222,-4.0521466,-2.3834898)" id="g4146" style="fill:none;fill-opacity:1">
        <path d="m 30.565,21.238 1.414,1.414 -1.793,1.793 5.172,0 0,2 -5.172,0 1.793,1.793 -1.414,1.414 -4.207,-4.207 z" style="opacity:1;fill:none;fill-opacity:1;fill-rule:nonzero;stroke:none" id="path4148"/>
    </g>
</svg>

<?xml version="1.0" encoding="UTF-8" standalone="no"?>
<svg id="svg2" xmlns:rdf="http://www.w3.org/1999/02/22-rdf-syntax-ns#" xmlns="http://www.w3.org/2000/svg" height="22" viewBox="0 0 6.208889 6.208889" width="22" version="1.1" xmlns:cc="http://creativecommons.org/ns#" xmlns:dc="http://purl.org/dc/elements/1.1/">
 <metadata id="metadata16">
  <rdf:RDF>
   <cc:Work rdf:about="">
    <dc:format>image/svg+xml</dc:format>
    <dc:type rdf:resource="http://purl.org/dc/dcmitype/StillImage"/>
    <dc:title/>
   </cc:Work>
  </rdf:RDF>
 </metadata>
 <g id="g4155" transform="matrix(-1 0 0 1 5.9267 0)">
  <path id="path4144" opacity="1e6" d="m12 3a8 8 0 0 0 -8 8 8 8 0 0 0 0.13672 1.4492l0.3633-0.363 0.707-0.707 2.8282 2.828-0.793 0.793h3.7578v3.93a8 8 0 0 0 1 0.07 8 8 0 0 0 8 -8 8 8 0 0 0 -8 -8zm-2 5v1.998h4v-1.998l3 3-3 3v-1.998h-4v1.998l-3-3 3-3zm-4.793 4.793-4.207 4.207 4.207 4.207 1.4141-1.414-1.793-1.793h5.1719v-2h-5.1719l1.793-1.793-1.4141-1.414z" transform="matrix(.28222 0 0 .28222 -.28222 0)" fill="#fff"/>
 </g>
 <g id="g4146" fill="none" transform="matrix(.28222 0 0 .28222 -4.0521 -2.3835)">
  <path id="path4148" fill="none" d="m30.565 21.238 1.414 1.414-1.793 1.793h5.172v2h-5.172l1.793 1.793-1.414 1.414-4.207-4.207z"/>
 </g>
</svg>
